; generated by PrusaSlicer 2.4.1+win64 on 2022-04-07 at 04:28:26 UTC

; 

; external perimeters extrusion width = 0.45mm
; perimeters extrusion width = 0.45mm
; infill extrusion width = 0.45mm
; solid infill extrusion width = 0.45mm
; top infill extrusion width = 0.40mm
; first layer extrusion width = 0.42mm

M73 P0 R63
M73 Q0 S64
M201 X1000 Y1000 Z200 E5000 ; sets maximum accelerations, mm/sec^2
M203 X200 Y200 Z12 E120 ; sets maximum feedrates, mm / sec
M204 P1250 R1250 T1250 ; sets acceleration (P, T) and retract acceleration (R), mm/sec^2
M205 X8.00 Y8.00 Z0.40 E4.50 ; sets the jerk limits, mm/sec
M205 S0 T0 ; sets the minimum extruding and travel feed rate, mm/sec
M107
;TYPE:Custom
M862.3 P "MK3" ; printer model check
M862.1 P0.4 ; nozzle diameter check
M115 U3.10.1 ; tell printer latest fw version
G90 ; use absolute coordinates
M83 ; extruder relative mode
M104 S215 ; set extruder temp
M140 S60 ; set bed temp
M190 S60 ; wait for bed temp
M109 S215 ; wait for extruder temp
G28 W ; home all without mesh bed level
G80 ; mesh bed leveling
G1 Z0.2 F720
G1 Y-3 F1000 ; go outside print area
G92 E0
G1 X60 E9 F1000 ; intro line
G1 X100 E12.5 F1000 ; intro line
G92 E0
M221 S95

; Don't change E values below. Excessive value can damage the printer.
M907 E430 ; set extruder motor current
G21 ; set units to millimeters
G90 ; use absolute coordinates
M83 ; use relative distances for extrusion
M900 K0.05 ; Filament gcode LA 1.5
M900 K30 ; Filament gcode LA 1.0
M107
;LAYER_CHANGE
;Z:0.2
;HEIGHT:0.2
;BEFORE_LAYER_CHANGE
G92 E0.0
;0.2


G1 E-.8 F2100
G1 Z.4 F720
;AFTER_LAYER_CHANGE
;0.2
G1 X102.665 Y76.838 F10800
G1 Z.2 F720
G1 E.8 F2100
M204 S800
;TYPE:Skirt/Brim
;WIDTH:0.42
G1 F1200
G1 X103.196 Y76.298 E.02373
G1 X103.794 Y75.93 E.02203
G1 X104.403 Y75.689 E.02053
G1 X105.362 Y75.542 E.0304
G1 X144.187 Y75.539 E1.21735
G1 X145.08 Y75.575 E.02802
G1 X145.751 Y75.739 E.02166
G1 X146.379 Y76.021 E.02157
G1 X147.04 Y76.518 E.02593
G1 X147.477 Y77.009 E.02061
G1 X147.76 Y77.498 E.01771
G1 X148.043 Y78.333 E.02763
G1 X148.12 Y79.011 E.02139
G1 X148.12 Y131 E1.63008
G1 X148.043 Y131.667 E.02107
G1 X147.883 Y132.214 E.01787
G1 X147.477 Y132.991 E.02747
G1 X147.04 Y133.482 E.02061
G1 X146.379 Y133.979 E.02593
G1 X145.519 Y134.332 E.02915
G1 X144.633 Y134.458 E.02805
G1 X105.362 Y134.458 E1.23133
G1 X104.786 Y134.403 E.01815
G1 X104.174 Y134.234 E.01988
G1 X103.196 Y133.702 E.03493
G1 X102.665 Y133.162 E.02373
G1 X102.293 Y132.616 E.02072
G1 X101.953 Y131.649 E.03212
G1 X101.88 Y130.993 E.02072
G1 X101.88 Y79.004 E1.63006
G1 X102.107 Y77.809 E.03815
G1 X102.315 Y77.34 E.01609
G1 X102.631 Y76.887 E.01731
M204 S1000
; printing object VER-4-FILL-TOP.stl id:0 copy 0
;WIPE_START
G1 F8640
G1 X103.196 Y76.298 E-.18845
G1 X103.794 Y75.93 E-.16226
G1 X104.403 Y75.689 E-.15122
G1 X105.362 Y75.542 E-.22388
G1 X105.51 Y75.542 E-.03419
;WIPE_END
G1 E-.04 F2100
G1 Z.6 F720
G1 X131.953 Y99.974 F10800
G1 Z.2 F720
G1 E.8 F2100
M204 S800
;TYPE:External perimeter
G1 F1200
G1 X132.089 Y99.982 E.00426
G1 X132.104 Y100.017 E.00119
G1 X132.011 Y99.991 E.00302
M204 S1000
G1 X131.879 Y100.088 F10800
G1 X131.83 Y99.94
M204 S800
G1 F1200
G1 X131.404 Y99.846 E.01368
G1 X131.019 Y99.696 E.01297
G1 X130.556 Y99.655 E.01456
G1 X130.17 Y99.755 E.01251
G1 X129.619 Y99.832 E.01743
G1 X129.655 Y99.166 E.02092
G1 X129.634 Y98.566 E.01881
G1 X129.587 Y98.438 E.00427
G1 X129.915 Y98.361 E.01058
G1 X130.184 Y98.335 E.00846
G1 X130.491 Y98.345 E.00965
G1 X131.355 Y98.249 E.02724
G1 X131.51 Y98.291 E.00504
G1 X131.861 Y98.432 E.01188
G1 X131.785 Y98.539 E.00411
G1 X131.758 Y99.23 E.02169
G1 X131.784 Y99.745 E.01618
G1 X131.816 Y99.881 E.0044
M204 S1000
G1 X131.508 Y99.703 F10800
;WIPE_START
G1 F8640
G1 X131.404 Y99.846 E-.09553
G1 X131.019 Y99.696 E-.09548
G1 X130.556 Y99.655 E-.10726
G1 X130.17 Y99.755 E-.09215
G1 X129.619 Y99.832 E-.12834
G1 X129.655 Y99.166 E-.15405
G1 X129.642 Y98.788 E-.08719
;WIPE_END
G1 E-.04 F2100
G1 Z.6 F720
G1 X129.557 Y102.94 F10800
G1 Z.2 F720
G1 E.8 F2100
M204 S800
;TYPE:Perimeter
G1 F1200
G1 X129.503 Y103.083 E.00479
G1 X129.437 Y102.735 E.01111
G1 X129.527 Y102.889 E.00559
M204 S1000
;WIPE_START
G1 F8640
G1 X129.503 Y103.083 E-.04517
G1 X129.437 Y102.735 E-.08184
G1 X129.527 Y102.889 E-.04115
;WIPE_END
G1 E-.63184 F2100
G1 Z.6 F720
G1 X130.823 Y102.711 F10800
G1 Z.2 F720
G1 E.8 F2100
M204 S800
G1 F1200
G1 X130.771 Y102.794 E.00306
G1 X130.781 Y102.668 E.00395
M204 S1000
;WIPE_START
G1 F8640
G1 X130.771 Y102.794 E-.02907
G1 X130.781 Y102.668 E-.02907
;WIPE_END
G1 E-.74187 F2100
G1 Z.6 F720
G1 X132.06 Y102.894 F10800
G1 Z.2 F720
G1 E.8 F2100
M204 S800
G1 F1200
G1 X132.531 Y103.928 E.03563
G1 X132.779 Y104.371 E.01592
G1 X133.075 Y104.817 E.01678
G1 X133.435 Y105.257 E.01782
G1 X133.732 Y105.545 E.01298
G1 X133.798 Y105.684 E.00481
G1 X133.888 Y105.926 E.0081
G1 X134.003 Y106.431 E.01622
G1 X134.028 Y106.679 E.00784
G1 X134.015 Y107.234 E.01739
G1 X133.981 Y107.48 E.0078
G1 X133.841 Y108.027 E.01769
G1 X133.623 Y108.551 E.0178
G1 X133.324 Y109.051 E.01827
G1 X132.985 Y109.473 E.01695
G1 X132.605 Y109.742 E.01461
G1 X132.161 Y109.98 E.0158
G1 X131.703 Y110.153 E.01535
G1 X130.723 Y110.371 E.03148
G1 X130.514 Y111.167 E.0258
M73 Q0 S63
G1 X130.484 Y111.507 E.0107
G1 X130.399 Y111.023 E.01543
G1 X130.187 Y110.312 E.02325
G1 X129.414 Y110.044 E.02566
G1 X129.061 Y109.88 E.0122
G1 X128.71 Y109.672 E.0128
G1 X128.383 Y109.434 E.01267
G1 X128.149 Y109.198 E.01043
G1 X127.912 Y108.886 E.01226
G1 X127.694 Y108.517 E.01344
G1 X127.512 Y108.112 E.01393
G1 X127.38 Y107.693 E.01379
G1 X127.305 Y107.278 E.01321
G1 X127.297 Y106.902 E.01179
G1 X127.393 Y106.214 E.02178
G1 X127.422 Y106.07 E.00462
G1 X127.544 Y105.74 E.01101
G1 X127.736 Y105.406 E.0121
G1 X127.992 Y105.059 E.0135
G1 X129.023 Y103.863 E.04952
G1 X129.356 Y103.377 E.01847
G1 X128.776 Y104.348 E.03547
G1 X128.78 Y106.587 E.07019
G1 X128.822 Y106.925 E.0107
G1 X128.913 Y107.273 E.01126
G1 X129.074 Y107.628 E.01224
G1 X129.302 Y107.939 E.01209
G1 X129.482 Y108.125 E.00809
G1 X129.744 Y108.314 E.01013
G1 X130.115 Y108.479 E.01275
G1 X130.617 Y108.55 E.01588
G1 X131.063 Y108.5 E.0141
G1 X131.465 Y108.366 E.01327
G1 X131.83 Y108.157 E.0132
G1 X132.108 Y107.915 E.01155
G1 X132.508 Y107.395 E.02057
G1 X132.521 Y104.902 E.07819
G1 X132.627 Y104.536 E.01192
G1 X132.611 Y104.174 E.01137
G1 X132.443 Y103.753 E.01421
G1 X132.182 Y103.432 E.01298
G1 X132.075 Y102.952 E.01541
M204 S1000
;WIPE_START
G1 F8640
G1 X132.531 Y103.928 E-.24878
G1 X132.779 Y104.371 E-.11724
G1 X133.075 Y104.817 E-.12354
G1 X133.435 Y105.257 E-.13127
G1 X133.732 Y105.545 E-.09556
G1 X133.798 Y105.684 E-.03545
G1 X133.81 Y105.717 E-.00817
;WIPE_END
G1 E-.04 F2100
G1 Z.6 F720
G1 X131.39 Y99.436 F10800
G1 Z.2 F720
G1 E.8 F2100
M204 S800
G1 F1200
G1 X131.106 Y99.325 E.00958
G1 X130.525 Y99.273 E.01829
G1 X130.025 Y99.392 E.0161
G1 X130.017 Y98.73 E.02076
G1 X130.196 Y98.713 E.00565
G1 X130.506 Y98.723 E.00973
G1 X131.325 Y98.632 E.02584
G1 X131.403 Y98.654 E.00254
G1 X131.387 Y99.376 E.02264
M204 S1000
;WIPE_START
G1 F8640
G1 X131.106 Y99.325 E-.06608
G1 X130.525 Y99.273 E-.13472
G1 X130.025 Y99.392 E-.11858
G1 X130.017 Y98.73 E-.15285
G1 X130.196 Y98.713 E-.0416
G1 X130.506 Y98.723 E-.07165
G1 X131.258 Y98.639 E-.17451
;WIPE_END
G1 E-.04 F2100
G1 Z.6 F720
G1 X132.897 Y105.195 F10800
G1 Z.2 F720
G1 E.8 F2100
M204 S800
G1 F1200
G1 X133.157 Y105.513 E.01288
G1 X133.421 Y105.769 E.01153
G1 X133.529 Y106.042 E.0092
G1 X133.588 Y106.259 E.00708
G1 X133.65 Y106.694 E.01376
G1 X133.639 Y107.204 E.01599
G1 X133.611 Y107.407 E.00645
G1 X133.483 Y107.907 E.01617
G1 X133.285 Y108.381 E.0161
G1 X133.014 Y108.836 E.0166
G1 X132.724 Y109.195 E.01448
G1 X132.406 Y109.421 E.01223
G1 X132.005 Y109.636 E.01428
G1 X131.595 Y109.791 E.01373
G1 X130.498 Y110.035 E.03524
G1 X130.493 Y110.019 E.00053
G1 X129.555 Y109.694 E.03112
G1 X129.237 Y109.546 E.01101
G1 X128.917 Y109.356 E.01165
G1 X128.629 Y109.147 E.01117
G1 X128.434 Y108.95 E.0087
G1 X128.226 Y108.676 E.01079
G1 X128.03 Y108.343 E.0121
G1 X127.865 Y107.977 E.01259
G1 X127.746 Y107.602 E.01233
G1 X127.682 Y107.24 E.01153
G1 X127.675 Y106.929 E.00976
G1 X127.786 Y106.173 E.02396
G1 X127.887 Y105.901 E.00911
G1 X128.052 Y105.612 E.01042
G1 X128.401 Y105.163 E.01783
G1 X128.403 Y106.61 E.04538
G1 X128.451 Y106.996 E.01219
G1 X128.556 Y107.399 E.01306
G1 X128.747 Y107.82 E.01448
G1 X129.013 Y108.182 E.0141
G1 X129.234 Y108.411 E.00995
G1 X129.555 Y108.642 E.01241
G1 X130.01 Y108.845 E.01562
G1 X130.611 Y108.93 E.01904
G1 X131.145 Y108.87 E.01684
G1 X131.62 Y108.712 E.01569
G1 X132.05 Y108.466 E.01554
G1 X132.384 Y108.175 E.0139
G1 X132.884 Y107.524 E.02573
G1 X132.897 Y105.255 E.07117
M204 S1000
;WIPE_START
G1 F8640
G1 X133.157 Y105.513 E-.08467
G1 X133.421 Y105.769 E-.08488
G1 X133.529 Y106.042 E-.06778
G1 X133.588 Y106.259 E-.05212
G1 X133.65 Y106.694 E-.10131
G1 X133.639 Y107.204 E-.11775
G1 X133.611 Y107.407 E-.04748
G1 X133.483 Y107.907 E-.11906
G1 X133.341 Y108.246 E-.08495
;WIPE_END
G1 E-.04 F2100
G1 Z.6 F720
G1 X133.46 Y99.117 F10800
G1 Z.2 F720
G1 E.8 F2100
M204 S800
G1 F1200
G1 X133.478 Y99.588 E.01478
G1 X133.387 Y99.606 E.00291
G1 X133.372 Y99.781 E.00551
G1 X133.663 Y99.818 E.00921
G1 X134.405 Y101.181 E.04866
G1 X134.195 Y101.324 E.00799
G1 X134.447 Y101.666 E.0133
G1 X134.626 Y102.02 E.01245
G1 X135.045 Y102.451 E.01884
G1 X135.594 Y103.098 E.02661
G1 X135.932 Y103.567 E.01814
G1 X136.235 Y104.058 E.01807
G1 X136.501 Y104.58 E.01837
G1 X136.725 Y105.136 E.01878
G1 X136.917 Y105.771 E.02081
G1 X136.988 Y106.348 E.01822
G1 X137.012 Y106.85 E.01577
G1 X136.998 Y107.338 E.0153
G1 X136.949 Y107.811 E.01492
G1 X136.868 Y108.27 E.01462
G1 X136.758 Y108.729 E.01479
G1 X136.464 Y109.654 E.03043
G1 X136.228 Y110.098 E.01578
G1 X135.776 Y110.751 E.02488
G1 X135.5 Y111.077 E.0134
G1 X134.977 Y111.607 E.02335
G1 X134.367 Y112.149 E.02558
G1 X133.635 Y112.577 E.02658
G1 X132.939 Y112.888 E.02391
G1 X132.23 Y113.112 E.02331
G1 X130.895 Y113.366 E.04262
G1 X130.895 Y113.423 E.00181
G1 X130.724 Y113.398 E.00542
G1 X130.505 Y113.44 E.007
G1 X130.485 Y113.363 E.00249
G1 X129.33 Y113.193 E.03659
G1 X128.991 Y113.116 E.0109
G1 X128.625 Y113 E.01204
G1 X128.009 Y112.731 E.02107
G1 X126.931 Y112.121 E.03884
G1 X126.603 Y111.878 E.0128
G1 X126.307 Y111.614 E.01244
G1 X125.847 Y111.105 E.0215
G1 X125.46 Y110.576 E.02057
G1 X125.086 Y110.003 E.02145
G1 X124.857 Y109.501 E.01731
G1 X124.687 Y109.024 E.01586
G1 X124.431 Y108.116 E.0296
G1 X124.349 Y107.548 E.01796
G1 X124.338 Y106.996 E.01731
G1 X124.411 Y106.011 E.03099
G1 X124.574 Y105.262 E.02403
G1 X124.699 Y104.855 E.01334
G1 X125.002 Y104.143 E.02426
G1 X125.219 Y103.765 E.01368
G1 X125.466 Y103.414 E.01343
G1 X125.734 Y103.103 E.01287
G1 X126.484 Y102.33 E.03378
G1 X126.582 Y102.207 E.00495
G1 X126.715 Y101.979 E.00826
G1 X126.819 Y101.665 E.01038
G1 X127.006 Y101.407 E.00998
G1 X127.278 Y101.153 E.01168
G1 X127.081 Y100.96 E.00866
G1 X127.511 Y100.194 E.02755
G1 X127.717 Y99.962 E.00972
G1 X128.037 Y99.75 E.01204
G1 X127.974 Y99.464 E.00919
G1 X127.952 Y98.816 E.02033
G1 X127.77 Y98.752 E.00605
G1 X128.114 Y97.606 E.03751
G1 X128.478 Y97.049 E.02087
G1 X128.72 Y96.852 E.00979
G1 X129.112 Y96.642 E.01396
G1 X129.45 Y96.508 E.01137
G1 X129.817 Y96.406 E.01196
G1 X130.402 Y96.31 E.01859
G1 X131.072 Y96.32 E.02101
G1 X131.437 Y96.377 E.0116
G1 X131.845 Y96.49 E.01325
G1 X132.181 Y96.633 E.01147
G1 X132.534 Y96.841 E.01284
G1 X132.956 Y97.153 E.01647
G1 X133.116 Y97.394 E.00906
G1 X133.36 Y97.661 E.01134
G1 X133.746 Y99.068 E.04576
G1 X133.519 Y99.107 E.00722
M204 S1000
G1 X133.071 Y98.8 F10800
M204 S800
G1 F1200
G1 X133.089 Y99.28 E.01504
G1 X133.023 Y99.293 E.00212
G1 X132.976 Y99.995 E.02208
G1 X133.242 Y100.152 E.00968
G1 X133.427 Y100.172 E.00582
G1 X133.911 Y101.061 E.03174
G1 X133.646 Y101.241 E.01003
G1 X133.638 Y101.324 E.00262
G1 X133.708 Y101.406 E.00336
G1 X133.863 Y101.51 E.00587
G1 X134.129 Y101.87 E.01402
G1 X134.242 Y102.073 E.00728
G1 X134.303 Y102.228 E.00524
G1 X134.765 Y102.705 E.02082
G1 X135.297 Y103.331 E.02575
G1 X135.619 Y103.777 E.01725
G1 X135.906 Y104.243 E.01716
G1 X136.158 Y104.737 E.01737
G1 X136.369 Y105.261 E.01773
G1 X136.547 Y105.849 E.01926
G1 X136.612 Y106.38 E.01676
G1 X136.635 Y106.854 E.01488
G1 X136.621 Y107.313 E.0144
G1 X136.575 Y107.759 E.01406
G1 X136.498 Y108.193 E.01384
G1 X136.394 Y108.628 E.014
G1 X136.115 Y109.507 E.02894
G1 X135.905 Y109.902 E.01401
G1 X135.477 Y110.521 E.0236
G1 X135.221 Y110.822 E.01238
G1 X134.717 Y111.333 E.02252
G1 X134.144 Y111.842 E.02402
G1 X133.462 Y112.241 E.02477
G1 X132.805 Y112.535 E.02258
G1 X132.138 Y112.745 E.02193
G1 X130.781 Y113.003 E.04329
G1 X130.51 Y111.931 E.03468
G1 X130.516 Y112.986 E.03308
G1 X129.399 Y112.822 E.03537
G1 X129.09 Y112.752 E.00994
G1 X128.758 Y112.646 E.01092
G1 X128.178 Y112.393 E.01985
G1 X127.137 Y111.805 E.03749
G1 X126.842 Y111.585 E.01154
G1 X126.573 Y111.346 E.01127
G1 X126.14 Y110.867 E.02025
G1 X125.77 Y110.361 E.01964
G1 X125.417 Y109.821 E.02024
G1 X125.207 Y109.359 E.01591
G1 X125.047 Y108.909 E.01496
G1 X124.8 Y108.037 E.02842
G1 X124.726 Y107.518 E.01645
G1 X124.716 Y107.007 E.01603
G1 X124.785 Y106.065 E.02961
G1 X124.939 Y105.358 E.02269
G1 X125.054 Y104.985 E.01222
G1 X125.34 Y104.311 E.02295
G1 X125.538 Y103.968 E.01243
G1 X125.763 Y103.646 E.01231
G1 X126.012 Y103.358 E.01194
G1 X126.768 Y102.579 E.03402
G1 X126.889 Y102.426 E.00613
G1 X127.064 Y102.124 E.01095
G1 X127.158 Y101.839 E.00941
G1 X127.289 Y101.658 E.007
G1 X127.79 Y101.218 E.0209
G1 X127.752 Y101.088 E.00425
G1 X127.551 Y100.893 E.00879
G1 X127.82 Y100.414 E.0172
G1 X127.965 Y100.25 E.00688
G1 X128.245 Y100.067 E.01049
G1 X128.448 Y99.901 E.00821
G1 X128.35 Y99.417 E.0155
G1 X128.32 Y98.545 E.02733
G1 X128.234 Y98.515 E.00284
G1 X128.459 Y97.767 E.02451
G1 X128.762 Y97.304 E.01733
G1 X128.93 Y97.167 E.00681
G1 X129.272 Y96.984 E.01214
G1 X129.57 Y96.866 E.01006
G1 X129.898 Y96.775 E.01068
G1 X130.43 Y96.688 E.01691
G1 X131.04 Y96.696 E.01912
G1 X131.358 Y96.746 E.01008
G1 X131.72 Y96.846 E.01179
G1 X132.01 Y96.97 E.00991
G1 X132.325 Y97.156 E.01146
G1 X132.679 Y97.418 E.01379
G1 X132.819 Y97.627 E.0079
G1 X133.021 Y97.848 E.00939
G1 X133.272 Y98.766 E.02985
G1 X133.13 Y98.79 E.00452
M204 S1000
;WIPE_START
G1 F8640
G1 X133.089 Y99.28 E-.11338
G1 X133.023 Y99.293 E-.0156
G1 X132.976 Y99.995 E-.16262
G1 X133.242 Y100.152 E-.07129
G1 X133.427 Y100.172 E-.04284
G1 X133.911 Y101.061 E-.23374
G1 X133.646 Y101.241 E-.0739
G1 X133.638 Y101.324 E-.01932
G1 X133.708 Y101.406 E-.02476
G1 X133.717 Y101.412 E-.00256
;WIPE_END
G1 E-.04 F2100
G1 Z.6 F720
G1 X131.685 Y102.946 F10800
G1 Z.2 F720
G1 E.8 F2100
M204 S800
;TYPE:External perimeter
G1 F1200
G1 X131.798 Y103.405 E.01482
G1 X131.822 Y103.587 E.00574
G1 X132.114 Y103.946 E.01454
G1 X132.237 Y104.254 E.01039
G1 X132.247 Y104.496 E.0076
G1 X132.189 Y104.724 E.00738
G1 X132.145 Y104.803 E.00283
G1 X132.132 Y107.266 E.07723
G1 X131.832 Y107.656 E.0154
G1 X131.611 Y107.848 E.0092
G1 X131.31 Y108.02 E.01086
G1 X130.982 Y108.13 E.01086
G1 X130.622 Y108.17 E.01135
G1 X130.221 Y108.113 E.01271
G1 X129.933 Y107.985 E.00987
G1 X129.73 Y107.838 E.00786
G1 X129.591 Y107.695 E.00624
G1 X129.401 Y107.436 E.01007
G1 X129.269 Y107.146 E.00999
G1 X129.194 Y106.854 E.00946
G1 X129.157 Y106.563 E.0092
G1 X129.153 Y104.452 E.06619
G1 X129.793 Y103.382 E.03908
G1 X129.919 Y103.049 E.01115
G1 X130.156 Y102.999 E.00759
G1 X130.388 Y103.074 E.00766
G1 X130.463 Y103.405 E.01063
G1 X130.423 Y103.457 E.00208
G1 X130.443 Y103.675 E.00684
G1 X130.531 Y103.867 E.00663
G1 X130.721 Y104.069 E.00869
G1 X130.733 Y104.274 E.00642
G1 X130.693 Y104.472 E.00635
G1 X130.54 Y104.845 E.01265
G1 X130.398 Y104.846 E.00447
G1 X130.475 Y105.547 E.02211
G1 X130.509 Y106.972 E.04469
G1 X130.631 Y106.993 E.00388
G1 X130.719 Y106.967 E.00288
G1 X130.808 Y106.908 E.00334
G1 X130.87 Y106.835 E.00302
G1 X130.905 Y106.75 E.00288
G1 X130.932 Y105.633 E.03501
G1 X131.04 Y104.845 E.02494
G1 X130.81 Y104.811 E.0073
G1 X130.738 Y104.409 E.0128
G1 X130.727 Y104.027 E.01198
