; generated by PrusaSlicer 2.4.1+win64 on 2022-04-07 at 16:01:46 UTC

; 

; external perimeters extrusion width = 0.45mm
; perimeters extrusion width = 0.45mm
; infill extrusion width = 0.45mm
; solid infill extrusion width = 0.45mm
; top infill extrusion width = 0.40mm
; first layer extrusion width = 0.42mm

M73 P0 R64
M73 Q0 S65
M201 X1000 Y1000 Z200 E5000 ; sets maximum accelerations, mm/sec^2
M203 X200 Y200 Z12 E120 ; sets maximum feedrates, mm / sec
M204 P1250 R1250 T1250 ; sets acceleration (P, T) and retract acceleration (R), mm/sec^2
M205 X8.00 Y8.00 Z0.40 E4.50 ; sets the jerk limits, mm/sec
M205 S0 T0 ; sets the minimum extruding and travel feed rate, mm/sec
M107
;TYPE:Custom
M862.3 P "MK3" ; printer model check
M862.1 P0.4 ; nozzle diameter check
M115 U3.10.1 ; tell printer latest fw version
G90 ; use absolute coordinates
M83 ; extruder relative mode
M104 S215 ; set extruder temp
M140 S60 ; set bed temp
M190 S60 ; wait for bed temp
M109 S215 ; wait for extruder temp
G28 W ; home all without mesh bed level
G80 ; mesh bed leveling
G1 Z0.2 F720
G1 Y-3 F1000 ; go outside print area
G92 E0
G1 X60 E9 F1000 ; intro line
G1 X100 E12.5 F1000 ; intro line
G92 E0
M221 S95

; Don't change E values below. Excessive value can damage the printer.
M907 E430 ; set extruder motor current
G21 ; set units to millimeters
G90 ; use absolute coordinates
M83 ; use relative distances for extrusion
M900 K0.05 ; Filament gcode LA 1.5
M900 K30 ; Filament gcode LA 1.0
M107
;LAYER_CHANGE
;Z:0.2
;HEIGHT:0.2
;BEFORE_LAYER_CHANGE
G92 E0.0
;0.2


G1 E-.8 F2100
G1 Z.4 F720
;AFTER_LAYER_CHANGE
;0.2
G1 X98.705 Y67.827 F10800
G1 Z.2 F720
G1 E.8 F2100
M204 S800
;TYPE:Skirt/Brim
;WIDTH:0.42
G1 F1200
G1 X99.054 Y67.324 E.01919
G1 X99.585 Y66.785 E.02373
G1 X100.184 Y66.416 E.02204
G1 X100.793 Y66.176 E.02053
G1 X101.751 Y66.029 E.0304
G1 X140.577 Y66.025 E1.21735
G1 X141.47 Y66.062 E.02802
G1 X142.141 Y66.226 E.02166
G1 X142.769 Y66.508 E.02157
G1 X143.43 Y67.005 E.02593
G1 X143.866 Y67.496 E.02061
G1 X144.149 Y67.985 E.01771
G1 X144.432 Y68.82 E.02763
G1 X144.509 Y69.497 E.02139
G1 X144.509 Y121.486 E1.63008
G1 X144.432 Y122.154 E.02107
G1 X144.272 Y122.701 E.01787
G1 X143.866 Y123.477 E.02747
G1 X143.43 Y123.969 E.02061
G1 X142.769 Y124.466 E.02593
G1 X141.909 Y124.819 E.02915
G1 X141.023 Y124.945 E.02805
G1 X101.751 Y124.945 E1.23133
G1 X101.175 Y124.89 E.01815
G1 X100.564 Y124.721 E.01988
G1 X99.585 Y124.188 E.03493
G1 X99.054 Y123.649 E.02373
G1 X98.682 Y123.103 E.02072
G1 X98.343 Y122.136 E.03212
G1 X98.27 Y121.479 E.02072
G1 X98.27 Y69.491 E1.63006
G1 X98.496 Y68.296 E.03815
G1 X98.681 Y67.882 E.01421
M204 S1000
; printing object VER-4-RISERS-TOP.stl id:0 copy 0
;WIPE_START
G1 F8640
G1 X99.054 Y67.324 E-.15492
G1 X99.585 Y66.785 E-.17473
G1 X100.184 Y66.416 E-.1623
G1 X100.793 Y66.176 E-.15122
G1 X101.293 Y66.099 E-.11682
;WIPE_END
G1 E-.04 F2100
G1 Z.6 F720
G1 X128.343 Y90.461 F10800
G1 Z.2 F720
G1 E.8 F2100
M204 S800
;TYPE:External perimeter
G1 F1200
G1 X128.479 Y90.469 E.00426
G1 X128.493 Y90.504 E.00119
G1 X128.401 Y90.477 E.00302
M204 S1000
G1 X128.268 Y90.575 F10800
G1 X128.22 Y90.426
M204 S800
G1 F1200
G1 X127.794 Y90.333 E.01368
G1 X127.408 Y90.183 E.01297
G1 X126.946 Y90.141 E.01456
G1 X126.559 Y90.242 E.01251
G1 X126.009 Y90.319 E.01743
G1 X126.045 Y89.652 E.02092
G1 X126.023 Y89.053 E.01881
G1 X125.976 Y88.925 E.00427
G1 X126.305 Y88.848 E.01058
G1 X126.573 Y88.822 E.00846
G1 X126.881 Y88.832 E.00965
G1 X127.744 Y88.736 E.02724
G1 X127.899 Y88.778 E.00504
G1 X128.251 Y88.919 E.01188
G1 X128.175 Y89.025 E.00411
G1 X128.147 Y89.716 E.02169
G1 X128.173 Y90.232 E.01618
G1 X128.206 Y90.368 E.0044
M204 S1000
G1 X127.897 Y90.19 F10800
;WIPE_START
G1 F8640
G1 X127.794 Y90.333 E-.09553
G1 X127.408 Y90.183 E-.09548
G1 X126.946 Y90.141 E-.10726
G1 X126.559 Y90.242 E-.09215
G1 X126.009 Y90.319 E-.12834
G1 X126.045 Y89.652 E-.15405
G1 X126.031 Y89.275 E-.08719
;WIPE_END
G1 E-.04 F2100
G1 Z.6 F720
G1 X125.947 Y93.427 F10800
G1 Z.2 F720
G1 E.8 F2100
M204 S800
;TYPE:Perimeter
G1 F1200
G1 X125.893 Y93.57 E.00479
G1 X125.827 Y93.221 E.01111
G1 X125.916 Y93.375 E.00559
M204 S1000
;WIPE_START
G1 F8640
G1 X125.893 Y93.57 E-.04517
G1 X125.827 Y93.221 E-.08184
G1 X125.916 Y93.375 E-.04115
;WIPE_END
G1 E-.63184 F2100
G1 Z.6 F720
G1 X127.213 Y93.198 F10800
G1 Z.2 F720
G1 E.8 F2100
M204 S800
G1 F1200
G1 X127.161 Y93.281 E.00306
G1 X127.171 Y93.155 E.00395
M204 S1000
G1 X128.074 Y93.433 F10800
M204 S800
;TYPE:External perimeter
G1 F1200
G1 X128.188 Y93.892 E.01482
G1 X128.211 Y94.073 E.00574
G1 X128.504 Y94.433 E.01454
G1 X128.627 Y94.741 E.01039
G1 X128.637 Y94.983 E.0076
G1 X128.578 Y95.211 E.00738
G1 X128.534 Y95.29 E.00283
G1 X128.521 Y97.753 E.07723
G1 X128.222 Y98.142 E.0154
G1 X128 Y98.335 E.0092
G1 X127.7 Y98.507 E.01086
G1 X127.371 Y98.616 E.01086
G1 X127.011 Y98.657 E.01135
G1 X126.61 Y98.6 E.01271
G1 X126.323 Y98.472 E.00987
G1 X126.119 Y98.325 E.00786
G1 X125.981 Y98.182 E.00624
G1 X125.791 Y97.923 E.01007
G1 X125.659 Y97.633 E.00999
G1 X125.583 Y97.341 E.00946
G1 X125.547 Y97.05 E.0092
G1 X125.543 Y94.939 E.06619
G1 X126.182 Y93.869 E.03908
G1 X126.309 Y93.536 E.01115
G1 X126.545 Y93.485 E.00759
G1 X126.778 Y93.561 E.00766
G1 X126.852 Y93.891 E.01063
G1 X126.812 Y93.944 E.00208
G1 X126.832 Y94.161 E.00684
G1 X126.921 Y94.354 E.00663
G1 X127.11 Y94.556 E.00869
G1 X127.122 Y94.76 E.00642
G1 X127.083 Y94.959 E.00635
G1 X126.93 Y95.332 E.01265
G1 X126.787 Y95.333 E.00447
G1 X126.865 Y96.034 E.02211
G1 X126.899 Y97.459 E.04469
G1 X127.021 Y97.48 E.00388
G1 X127.109 Y97.453 E.00288
G1 X127.198 Y97.395 E.00334
G1 X127.26 Y97.321 E.00302
G1 X127.295 Y97.236 E.00288
G1 X127.321 Y96.12 E.03501
G1 X127.43 Y95.332 E.02494
G1 X127.2 Y95.297 E.0073
G1 X127.127 Y94.896 E.0128
G1 X127.117 Y94.514 E.01198
G1 X127.22 Y94.39 E.00505
G1 X127.354 Y93.97 E.01383
G1 X127.424 Y93.571 E.01271
G1 X127.542 Y93.382 E.00698
G1 X127.789 Y93.348 E.00779
G1 X128.017 Y93.416 E.00746
M204 S1000
G1 X128.471 Y93.381 F10800
;WIPE_START
G1 F8640
G1 X128.188 Y93.892 E-.11677
G1 X128.211 Y94.073 E-.04225
G1 X128.504 Y94.433 E-.10708
G1 X128.627 Y94.741 E-.07651
G1 X128.637 Y94.983 E-.05599
G1 X128.578 Y95.211 E-.05432
G1 X128.534 Y95.29 E-.02085
G1 X128.528 Y96.529 E-.28623
;WIPE_END
G1 E-.04 F2100
G1 Z.6 F720
G1 X129.286 Y95.681 F10800
G1 Z.2 F720
G1 E.8 F2100
M204 S800
;TYPE:Perimeter
G1 F1200
G1 X129.547 Y95.999 E.01288
G1 X129.81 Y96.255 E.01153
G1 X129.918 Y96.528 E.0092
G1 X129.978 Y96.746 E.00708
G1 X130.04 Y97.18 E.01376
G1 X130.028 Y97.69 E.01599
G1 X130 Y97.894 E.00645
G1 X129.872 Y98.394 E.01617
G1 X129.675 Y98.867 E.0161
G1 X129.404 Y99.322 E.0166
G1 X129.114 Y99.682 E.01448
G1 X128.796 Y99.908 E.01223
G1 X128.394 Y100.123 E.01428
G1 X127.985 Y100.278 E.01373
G1 X126.888 Y100.522 E.03524
G1 X126.883 Y100.506 E.00053
G1 X125.945 Y100.181 E.03112
G1 X125.626 Y100.032 E.01101
G1 X125.307 Y99.843 E.01165
G1 X125.019 Y99.633 E.01117
G1 X124.823 Y99.437 E.0087
G1 X124.615 Y99.162 E.01079
G1 X124.419 Y98.83 E.0121
G1 X124.255 Y98.464 E.01259
G1 X124.136 Y98.089 E.01233
G1 X124.071 Y97.727 E.01153
G1 X124.064 Y97.416 E.00976
G1 X124.175 Y96.66 E.02396
G1 X124.276 Y96.387 E.00911
G1 X124.442 Y96.099 E.01042
G1 X124.79 Y95.65 E.01783
G1 X124.793 Y97.097 E.04538
G1 X124.841 Y97.483 E.01219
G1 X124.945 Y97.886 E.01306
G1 X125.137 Y98.306 E.01448
G1 X125.403 Y98.669 E.0141
G1 X125.623 Y98.898 E.00995
G1 X125.944 Y99.129 E.01241
G1 X126.399 Y99.332 E.01562
G1 X127.001 Y99.417 E.01904
G1 X127.535 Y99.357 E.01684
G1 X128.009 Y99.199 E.01569
G1 X128.439 Y98.953 E.01554
G1 X128.774 Y98.662 E.0139
G1 X129.274 Y98.011 E.02573
G1 X129.286 Y95.741 E.07117
M204 S1000
;WIPE_START
G1 F8640
G1 X129.547 Y95.999 E-.08467
G1 X129.81 Y96.255 E-.08488
G1 X129.918 Y96.528 E-.06778
G1 X129.978 Y96.746 E-.05212
G1 X130.04 Y97.18 E-.10131
G1 X130.028 Y97.69 E-.11775
G1 X130 Y97.894 E-.04748
G1 X129.872 Y98.394 E-.11906
G1 X129.731 Y98.733 E-.08495
;WIPE_END
G1 E-.04 F2100
G1 Z.6 F720
G1 X129.001 Y94.661 F10800
G1 Z.2 F720
G1 E.8 F2100
M204 S800
G1 F1200
G1 X128.832 Y94.24 E.01421
G1 X128.571 Y93.919 E.01298
G1 X128.45 Y93.381 E.01729
G1 X128.921 Y94.415 E.03563
G1 X129.169 Y94.858 E.01592
G1 X129.465 Y95.304 E.01678
G1 X129.825 Y95.744 E.01782
G1 X130.122 Y96.032 E.01298
G1 X130.277 Y96.413 E.0129
G1 X130.346 Y96.662 E.0081
G1 X130.417 Y97.166 E.01596
G1 X130.405 Y97.72 E.01739
G1 X130.371 Y97.967 E.0078
G1 X130.231 Y98.513 E.01769
G1 X130.012 Y99.038 E.0178
G1 X129.714 Y99.538 E.01827
G1 X129.375 Y99.959 E.01695
G1 X128.995 Y100.229 E.01461
G1 X128.551 Y100.467 E.0158
G1 X128.093 Y100.64 E.01535
G1 X127.113 Y100.858 E.03148
G1 X126.904 Y101.654 E.0258
G1 X126.874 Y101.994 E.0107
G1 X126.788 Y101.509 E.01543
G1 X126.577 Y100.799 E.02325
G1 X125.803 Y100.531 E.02566
G1 X125.451 Y100.366 E.0122
G1 X125.099 Y100.159 E.0128
G1 X124.772 Y99.92 E.01267
G1 X124.538 Y99.684 E.01043
G1 X124.302 Y99.373 E.01226
G1 X124.084 Y99.004 E.01344
G1 X123.902 Y98.599 E.01393
G1 X123.769 Y98.179 E.01379
G1 X123.695 Y97.765 E.01321
G1 X123.686 Y97.389 E.01179
G1 X123.812 Y96.556 E.02639
G1 X123.933 Y96.227 E.01101
G1 X124.125 Y95.892 E.0121
G1 X124.382 Y95.546 E.0135
G1 X125.412 Y94.349 E.04952
G1 X125.746 Y93.864 E.01847
G1 X125.165 Y94.835 E.03547
G1 X125.17 Y97.073 E.07019
G1 X125.212 Y97.412 E.0107
G1 X125.302 Y97.76 E.01126
G1 X125.464 Y98.115 E.01224
G1 X125.692 Y98.426 E.01209
G1 X125.871 Y98.611 E.00809
G1 X126.133 Y98.8 E.01013
G1 X126.505 Y98.966 E.01275
G1 X127.006 Y99.037 E.01588
G1 X127.453 Y98.987 E.0141
G1 X127.854 Y98.853 E.01327
G1 X128.22 Y98.644 E.0132
G1 X128.498 Y98.402 E.01155
G1 X128.897 Y97.882 E.02057
G1 X128.911 Y95.388 E.07819
G1 X129.016 Y95.023 E.01192
G1 X129.003 Y94.721 E.00949
M204 S1000
;WIPE_START
G1 F8640
G1 X128.832 Y94.24 E-.11778
G1 X128.571 Y93.919 E-.09559
G1 X128.45 Y93.381 E-.12731
G1 X128.921 Y94.415 E-.26238
G1 X129.169 Y94.858 E-.11724
G1 X129.264 Y95.001 E-.0397
;WIPE_END
G1 E-.04 F2100
G1 Z.6 F720
G1 X127.78 Y89.923 F10800
G1 Z.2 F720
G1 E.8 F2100
M204 S800
G1 F1200
G1 X127.495 Y89.812 E.00958
G1 X126.914 Y89.76 E.01829
G1 X126.415 Y89.879 E.0161
G1 X126.406 Y89.217 E.02076
G1 X126.586 Y89.2 E.00565
G1 X126.896 Y89.209 E.00973
G1 X127.715 Y89.118 E.02584
G1 X127.793 Y89.141 E.00254
G1 X127.777 Y89.863 E.02264
M204 S1000
;WIPE_START
G1 F8640
G1 X127.495 Y89.812 E-.06608
G1 X126.914 Y89.76 E-.13472
G1 X126.415 Y89.879 E-.11858
G1 X126.406 Y89.217 E-.15285
G1 X126.586 Y89.2 E-.0416
G1 X126.896 Y89.209 E-.07165
G1 X127.647 Y89.126 E-.17451
;WIPE_END
G1 E-.04 F2100
G1 Z.6 F720
G1 X129.188 Y88.951 F10800
G1 Z.2 F720
G1 E.8 F2100
M204 S800
;TYPE:External perimeter
G1 F1200
G1 X128.982 Y88.986 E.00655
G1 X128.97 Y89.085 E.00312
G1 X128.955 Y89.084 E.00047
G1 X129.076 Y89.099 E.00383
G1 X129.09 Y89.458 E.01126
G1 X129.01 Y89.474 E.00255
G1 X129.039 Y89.85 E.01183
G1 X128.988 Y90.474 E.01963
G1 X128.789 Y90.612 E.0076
G1 X129.348 Y90.899 E.01971
G1 X129.492 Y91.003 E.00557
G1 X129.58 Y91.013 E.00276
G1 X129.806 Y91.428 E.01482
G1 X129.676 Y91.516 E.00491
G1 X129.655 Y91.745 E.00721
G1 X129.421 Y91.754 E.00735
G1 X129.655 Y91.955 E.00969
G1 X129.844 Y92.176 E.00913
G1 X129.988 Y92.273 E.00544
G1 X130.201 Y92.561 E.01122
G1 X130.289 Y92.721 E.00573
G1 X130.369 Y92.923 E.00682
G1 X130.875 Y93.445 E.0228
G1 X131.389 Y94.05 E.02489
G1 X131.694 Y94.473 E.01636
G1 X131.967 Y94.915 E.01625
G1 X132.204 Y95.38 E.01637
G1 X132.403 Y95.873 E.01668
G1 X132.566 Y96.414 E.01771
G1 X132.626 Y96.898 E.01531
G1 X132.647 Y97.344 E.01398
G1 X132.634 Y97.774 E.0135
G1 X132.591 Y98.193 E.0132
G1 X132.519 Y98.603 E.01306
G1 X132.42 Y99.013 E.01322
G1 X132.155 Y99.847 E.02744
G1 X131.972 Y100.192 E.01224
G1 X131.567 Y100.778 E.02233
G1 X131.332 Y101.054 E.01136
G1 X130.847 Y101.546 E.02169
G1 X130.311 Y102.022 E.02246
G1 X129.679 Y102.392 E.02296
G1 X129.06 Y102.669 E.02126
G1 X128.435 Y102.866 E.02055
G1 X127.448 Y103.054 E.03152
G1 X127.275 Y102.385 E.02164
G1 X127.247 Y102.052 E.01048
G1 X127.277 Y101.719 E.01049
G1 X127.419 Y101.176 E.0176
G1 X128.201 Y101.002 E.02511
G1 X128.707 Y100.811 E.01697
G1 X129.194 Y100.55 E.01732
G1 X129.636 Y100.236 E.017
G1 X130.024 Y99.754 E.01942
G1 X130.35 Y99.208 E.01994
G1 X130.59 Y98.633 E.0195
G1 X130.741 Y98.04 E.01921
G1 X130.781 Y97.751 E.00915
G1 X130.795 Y97.151 E.01879
G1 X130.766 Y96.864 E.00904
G1 X130.637 Y96.298 E.01823
G1 X130.433 Y95.809 E.0166
G1 X130.103 Y95.488 E.01443
G1 X129.769 Y95.079 E.01656
G1 X129.491 Y94.661 E.01574
G1 X129.255 Y94.241 E.0151
G1 X129.058 Y93.831 E.01425
G1 X128.709 Y93.033 E.02733
G1 X128.584 Y92.594 E.0143
G1 X128.571 Y92.487 E.00337
G1 X128.478 Y92.36 E.00493
G1 X128.483 Y92.077 E.00889
G1 X128.554 Y91.908 E.00575
G1 X128.713 Y91.777 E.00646
G1 X128.912 Y91.722 E.00646
G1 X128.998 Y91.717 E.00271
G1 X128.079 Y91.448 E.03005
G1 X128.157 Y91.763 E.01019
G1 X128.21 Y92.221 E.01446
G1 X128.077 Y92.322 E.00524
G1 X128.064 Y92.368 E.00151
G1 X128.128 Y92.824 E.01442
G1 X127.796 Y92.971 E.0114
G1 X127.522 Y92.974 E.00859
G1 X127.126 Y92.573 E.01768
G1 X127.061 Y92.543 E.00223
G1 X126.926 Y92.755 E.00788
G1 X126.8 Y93.032 E.00954
G1 X126.792 Y93.148 E.00364
G1 X126.569 Y93.278 E.0081
G1 X126.402 Y93.269 E.00525
G1 X126.226 Y93.157 E.00654
G1 X126.087 Y92.918 E.00868
G1 X125.869 Y92.613 E.01174
G1 X125.682 Y92.494 E.00693
G1 X125.585 Y92.206 E.00952
G1 X125.538 Y91.982 E.0072
G1 X125.524 Y91.76 E.00695
G1 X125.546 Y91.506 E.00801
G1 X125.456 Y91.537 E.00298
G1 X125.103 Y91.74 E.01278
G1 X125.171 Y91.747 E.00214
G1 X125.301 Y91.799 E.0044
G1 X125.404 Y91.888 E.00427
G1 X125.473 Y92.031 E.00496
G1 X125.485 Y92.241 E.00661
G1 X125.448 Y92.491 E.00793
G1 X125.346 Y92.706 E.00744
G1 X125.505 Y93.549 E.0269
G1 X125.113 Y94.119 E.0217
G1 X124.087 Y95.311 E.04931
G1 X123.809 Y95.686 E.01462
G1 X123.591 Y96.067 E.01377
G1 X123.448 Y96.453 E.01291
G1 X123.309 Y97.361 E.02882
G1 X123.319 Y97.802 E.01383
G1 X123.402 Y98.27 E.01489
G1 X123.549 Y98.733 E.01524
G1 X123.749 Y99.177 E.01527
G1 X123.988 Y99.583 E.01478
G1 X124.253 Y99.932 E.01373
G1 X124.526 Y100.208 E.01216
G1 X124.892 Y100.474 E.01418
G1 X125.275 Y100.7 E.01395
G1 X125.662 Y100.881 E.01339
G1 X126.27 Y101.091 E.0202
G1 X126.422 Y101.6 E.01665
G1 X126.487 Y101.926 E.01042
G1 X126.521 Y102.253 E.01029
G1 X126.526 Y103.036 E.02455
G1 X125.858 Y102.937 E.02115
G1 X125.579 Y102.874 E.00898
G1 X125.281 Y102.779 E.0098
G1 X124.736 Y102.542 E.01863
G1 X123.733 Y101.975 E.03614
G1 X123.469 Y101.779 E.01028
G1 X123.229 Y101.565 E.0101
G1 X122.823 Y101.115 E.019
G1 X122.47 Y100.633 E.01872
G1 X122.138 Y100.125 E.01903
G1 X121.946 Y99.704 E.01451
G1 X121.796 Y99.282 E.01406
G1 X121.56 Y98.445 E.02724
G1 X121.492 Y97.974 E.01494
G1 X121.483 Y97.504 E.01475
G1 X121.549 Y96.606 E.02823
G1 X121.693 Y95.94 E.02136
G1 X121.798 Y95.601 E.01111
G1 X122.068 Y94.966 E.02164
G1 X122.246 Y94.657 E.01119
G1 X122.451 Y94.365 E.01118
G1 X122.68 Y94.099 E.011
G1 X123.441 Y93.315 E.03425
G1 X123.586 Y93.133 E.00732
G1 X123.709 Y92.941 E.00716
G1 X123.802 Y92.756 E.0065
G1 X123.887 Y92.5 E.00845
G1 X123.963 Y92.396 E.00403
G1 X124.185 Y92.189 E.00951
G1 X124.273 Y92.139 E.00316
G1 X124.547 Y91.875 E.01193
G1 X124.732 Y91.779 E.00653
G1 X124.67 Y91.758 E.00203
G1 X124.553 Y91.637 E.00529
G1 X124.511 Y91.494 E.00468
G1 X124.512 Y91.409 E.00265
G1 X124.411 Y91.312 E.0044
G1 X124.518 Y91.121 E.00685
G1 X124.604 Y91.025 E.00403
G1 X124.858 Y90.858 E.00955
G1 X125.107 Y90.655 E.01008
G1 X125.285 Y90.56 E.00632
G1 X125.231 Y90.545 E.00175
G1 X125.204 Y90.262 E.0089
G1 X125.115 Y89.856 E.01304
G1 X125.087 Y89.05 E.02529
G1 X125.364 Y88.987 E.00891
G1 X125.286 Y88.989 E.00247
G1 X125.275 Y88.831 E.00498
G1 X125.089 Y88.766 E.00621
G1 X125.194 Y88.414 E.0115
G1 X125.435 Y88.046 E.0138
G1 X125.53 Y87.969 E.00384
G1 X125.82 Y87.813 E.01032
G1 X126.079 Y87.71 E.00875
G1 X126.368 Y87.63 E.0094
G1 X126.848 Y87.552 E.01523
G1 X127.397 Y87.56 E.01724
G1 X127.667 Y87.602 E.00856
G1 X127.984 Y87.69 E.01032
G1 X128.229 Y87.794 E.00835
G1 X128.506 Y87.958 E.01008
G1 X128.791 Y88.168 E.01111
