; generated by PrusaSlicer 2.4.1+win64 on 2022-04-07 at 01:33:50 UTC

; 

; external perimeters extrusion width = 0.45mm
; perimeters extrusion width = 0.45mm
; infill extrusion width = 0.45mm
; solid infill extrusion width = 0.45mm
; top infill extrusion width = 0.40mm
; first layer extrusion width = 0.42mm

M73 P0 R66
M73 Q0 S67
M201 X1000 Y1000 Z200 E5000 ; sets maximum accelerations, mm/sec^2
M203 X200 Y200 Z12 E120 ; sets maximum feedrates, mm / sec
M204 P1250 R1250 T1250 ; sets acceleration (P, T) and retract acceleration (R), mm/sec^2
M205 X8.00 Y8.00 Z0.40 E4.50 ; sets the jerk limits, mm/sec
M205 S0 T0 ; sets the minimum extruding and travel feed rate, mm/sec
M107
;TYPE:Custom
M862.3 P "MK3" ; printer model check
M862.1 P0.4 ; nozzle diameter check
M115 U3.10.1 ; tell printer latest fw version
G90 ; use absolute coordinates
M83 ; extruder relative mode
M104 S215 ; set extruder temp
M140 S60 ; set bed temp
M190 S60 ; wait for bed temp
M109 S215 ; wait for extruder temp
G28 W ; home all without mesh bed level
G80 ; mesh bed leveling
G1 Z0.2 F720
G1 Y-3 F1000 ; go outside print area
G92 E0
G1 X60 E9 F1000 ; intro line
G1 X100 E12.5 F1000 ; intro line
G92 E0
M221 S95

; Don't change E values below. Excessive value can damage the printer.
M907 E430 ; set extruder motor current
G21 ; set units to millimeters
G90 ; use absolute coordinates
M83 ; use relative distances for extrusion
M900 K0.05 ; Filament gcode LA 1.5
M900 K30 ; Filament gcode LA 1.0
M107
;LAYER_CHANGE
;Z:0.2
;HEIGHT:0.2
;BEFORE_LAYER_CHANGE
G92 E0.0
;0.2


G1 E-.8 F2100
G1 Z.4 F720
;AFTER_LAYER_CHANGE
;0.2
G1 X97.116 Y81.165 F10800
G1 Z.2 F720
G1 E.8 F2100
M204 S800
;TYPE:Skirt/Brim
;WIDTH:0.42
G1 F1200
G1 X97.848 Y80.391 E.0334
G1 X103.245 Y76.26 E.21309
G1 X104.174 Y75.766 E.03302
G1 X104.893 Y75.58 E.02328
G1 X144.187 Y75.539 E1.23205
G1 X144.88 Y75.554 E.02172
G1 X145.519 Y75.668 E.02035
G1 X146.141 Y75.898 E.02081
G1 X146.686 Y76.21 E.01967
G1 X147.477 Y77.009 E.03527
G1 X147.883 Y77.786 E.02746
G1 X148.079 Y78.551 E.02476
G1 X153.717 Y122.621 E1.39306
G1 X153.698 Y126.843 E.13236
G1 X153.454 Y127.794 E.0308
G1 X152.884 Y128.835 E.03721
G1 X152.152 Y129.609 E.03341
G1 X146.666 Y133.805 E.21656
G1 X145.751 Y134.261 E.03203
G1 X144.88 Y134.446 E.02793
G1 X105.362 Y134.458 E1.23907
G1 X104.786 Y134.403 E.01815
G1 X104.174 Y134.234 E.01989
G1 X103.196 Y133.702 E.03493
G1 X102.665 Y133.162 E.02373
G1 X102.315 Y132.66 E.01919
G1 X102.107 Y132.191 E.01609
G1 X101.917 Y131.417 E.025
G1 X96.286 Y87.414 E1.39092
G1 X96.302 Y83.158 E.13345
G1 X96.546 Y82.207 E.03079
G1 X97.087 Y81.218 E.03534
M204 S1000
; printing object VER-4-BOTTOM.stl id:0 copy 0
;WIPE_START
G1 F8640
G1 X97.848 Y80.391 E-.25943
G1 X99.57 Y79.074 E-.50057
;WIPE_END
G1 E-.04 F2100
G1 Z.6 F720
G1 X148.654 Y124.642 F10800
G1 Z.2 F720
G1 E.8 F2100
M204 S800
;TYPE:External perimeter
G1 F1200
G1 X148.869 Y124.464 E.00874
G1 X149.117 Y124.332 E.00883
G1 X149.446 Y124.251 E.01062
G1 X149.631 Y124.236 E.00582
G1 X149.893 Y124.266 E.00826
G1 X150.137 Y124.356 E.00817
G1 X150.374 Y124.502 E.00869
G1 X150.559 Y124.715 E.00886
G1 X150.683 Y124.95 E.00832
G1 X150.748 Y125.186 E.00769
G1 X150.803 Y125.601 E.01312
G1 X150.752 Y125.998 E.01254
G1 X150.691 Y126.229 E.0075
G1 X150.573 Y126.465 E.00826
G1 X150.394 Y126.679 E.00877
G1 X150.192 Y126.815 E.00762
G1 X149.913 Y126.931 E.00949
G1 X149.68 Y126.963 E.00737
G1 X149.386 Y126.947 E.00922
G1 X149.135 Y126.878 E.00816
G1 X148.892 Y126.754 E.00856
G1 X148.674 Y126.58 E.00873
G1 X148.496 Y126.366 E.00874
G1 X148.366 Y126.122 E.00866
G1 X148.299 Y125.9 E.00728
G1 X148.263 Y125.61 E.00916
G1 X148.287 Y125.35 E.00819
G1 X148.357 Y125.103 E.00806
G1 X148.481 Y124.86 E.00854
G1 X148.617 Y124.689 E.00684
M204 S1000
G1 X148.579 Y124.374 F10800
;WIPE_START
G1 F8640
G1 X148.869 Y124.464 E-.078
G1 X149.117 Y124.332 E-.06506
G1 X149.446 Y124.251 E-.07824
G1 X149.631 Y124.236 E-.04286
G1 X149.893 Y124.266 E-.06083
G1 X150.137 Y124.356 E-.06015
G1 X150.374 Y124.502 E-.06402
G1 X150.559 Y124.715 E-.06523
G1 X150.683 Y124.95 E-.06126
G1 X150.748 Y125.186 E-.05666
G1 X150.803 Y125.601 E-.09665
G1 X150.786 Y125.734 E-.03105
;WIPE_END
G1 E-.04 F2100
G1 Z.6 F720
G1 X148.846 Y123.621 F10800
G1 Z.2 F720
G1 E.8 F2100
M204 S800
;TYPE:Perimeter
G1 F1200
G1 X148.446 Y123.835 E.01423
G1 X148.113 Y124.112 E.01358
G1 X147.843 Y124.449 E.01354
G1 X147.651 Y124.826 E.01325
G1 X147.542 Y125.212 E.01258
G1 X147.505 Y125.622 E.01293
G1 X147.558 Y126.056 E.01368
G1 X147.665 Y126.411 E.01164
G1 X147.867 Y126.789 E.01344
G1 X148.144 Y127.122 E.01357
G1 X148.394 Y127.321 E.01001
G1 X144.063 Y128.334 E.13945
G1 X144.068 Y130.423 E.06552
G1 X105.926 Y130.429 E1.1959
G1 X105.938 Y98.926 E.98777
G1 X105.977 Y98.353 E.018
G1 X105.977 Y97.151 E.0377
G1 X106.101 Y96.421 E.0232
G1 X104.868 Y96.142 E.03965
G1 X104.614 Y96.014 E.00892
G1 X104.437 Y95.834 E.00791
G1 X99.857 Y87.218 E.30595
G1 X99.81 Y87.035 E.00592
M73 Q0 S66
G1 X99.795 Y86.423 E.01921
G1 X99.931 Y86.473 E.00455
G1 X100.37 Y86.523 E.01386
G1 X100.812 Y86.474 E.01393
G1 X101.174 Y86.368 E.01184
G1 X101.554 Y86.165 E.01351
G1 X101.887 Y85.888 E.01358
G1 X102.157 Y85.551 E.01354
G1 X102.349 Y85.174 E.01325
G1 X102.458 Y84.788 E.01258
G1 X102.495 Y84.378 E.01293
G1 X102.442 Y83.944 E.01368
G1 X102.335 Y83.589 E.01164
G1 X102.133 Y83.211 E.01344
G1 X101.856 Y82.878 E.01357
G1 X101.606 Y82.679 E.01001
G1 X105.938 Y81.666 E.13949
G1 X105.933 Y79.575 E.06555
G1 X144.073 Y79.571 E1.19586
G1 X144.062 Y112.861 E1.04378
G1 X144.378 Y113.673 E.02731
G1 X145.189 Y113.879 E.02624
G1 X145.282 Y113.92 E.00319
G1 X145.479 Y114.067 E.00772
G1 X145.645 Y114.297 E.00891
G1 X150.143 Y122.782 E.30109
G1 X150.19 Y122.966 E.00596
G1 X150.205 Y123.577 E.01917
G1 X150.069 Y123.527 E.00456
G1 X149.643 Y123.479 E.01343
G1 X149.326 Y123.505 E.00998
G1 X148.905 Y123.607 E.0136
M204 S1000
G1 X148.994 Y123.974 F10800
M204 S800
G1 F1200
G1 X148.657 Y124.15 E.01191
G1 X148.383 Y124.377 E.01116
G1 X148.162 Y124.655 E.01113
G1 X148.004 Y124.964 E.01089
G1 X147.914 Y125.281 E.01032
G1 X147.884 Y125.616 E.01056
G1 X147.929 Y125.978 E.01142
G1 X148.015 Y126.267 E.00946
G1 X148.181 Y126.578 E.01105
G1 X148.409 Y126.851 E.01116
G1 X148.687 Y127.073 E.01114
G1 X148.998 Y127.231 E.01095
G1 X149.325 Y127.321 E.01062
G1 X149.696 Y127.342 E.01164
G1 X149.91 Y127.312 E.00679
G1 X149.615 Y127.423 E.00989
G1 X144.441 Y128.633 E.1666
G1 X144.445 Y130.8 E.06797
G1 X105.552 Y130.802 E1.21946
G1 X105.561 Y98.913 E.99988
G1 X105.6 Y98.34 E.01799
G1 X105.6 Y97.119 E.03829
G1 X105.67 Y96.71 E.013
G1 X104.752 Y96.502 E.0295
G1 X104.536 Y96.411 E.00736
G1 X104.389 Y96.318 E.00546
G1 X104.263 Y96.209 E.0052
G1 X104.133 Y96.059 E.00623
G1 X104.028 Y95.891 E.00621
G1 X99.504 Y87.354 E.30295
G1 X99.434 Y87.075 E.009
G1 X99.388 Y85.795 E.04018
G1 X99.697 Y85.984 E.01136
G1 X100.019 Y86.104 E.01077
G1 X100.371 Y86.143 E.01111
G1 X100.738 Y86.103 E.01157
G1 X101.031 Y86.017 E.00958
G1 X101.343 Y85.85 E.01109
G1 X101.617 Y85.623 E.01116
G1 X101.838 Y85.345 E.01113
G1 X101.996 Y85.036 E.01089
G1 X102.086 Y84.719 E.01032
G1 X102.116 Y84.384 E.01056
G1 X102.071 Y84.022 E.01142
G1 X101.985 Y83.733 E.00946
G1 X101.819 Y83.422 E.01105
G1 X101.591 Y83.149 E.01116
G1 X101.313 Y82.927 E.01114
G1 X101.002 Y82.769 E.01095
G1 X100.675 Y82.679 E.01062
G1 X100.304 Y82.658 E.01164
G1 X100.09 Y82.688 E.00679
G1 X100.385 Y82.577 E.00989
G1 X105.56 Y81.367 E.16664
G1 X105.555 Y79.199 E.06797
G1 X144.447 Y79.198 E1.21944
G1 X144.44 Y112.79 E1.05328
G1 X144.659 Y113.355 E.019
G1 X145.312 Y113.521 E.02115
G1 X145.46 Y113.586 E.00505
G1 X145.611 Y113.682 E.00561
G1 X145.747 Y113.8 E.00566
G1 X145.866 Y113.939 E.00572
G1 X145.972 Y114.109 E.00628
G1 X150.496 Y122.646 E.30295
G1 X150.566 Y122.927 E.00907
G1 X150.612 Y124.205 E.0401
G1 X150.303 Y124.016 E.01136
G1 X149.981 Y123.896 E.01077
G1 X149.637 Y123.858 E.01084
G1 X149.386 Y123.878 E.0079
G1 X149.052 Y123.959 E.01078
M204 S1000
;WIPE_START
G1 F8640
G1 X148.657 Y124.15 E-.10122
G1 X148.383 Y124.377 E-.0822
G1 X148.162 Y124.655 E-.08198
G1 X148.004 Y124.964 E-.08022
G1 X147.914 Y125.281 E-.07602
G1 X147.884 Y125.616 E-.07775
G1 X147.929 Y125.978 E-.08412
G1 X148.015 Y126.267 E-.06966
G1 X148.181 Y126.578 E-.08141
G1 X148.252 Y126.662 E-.02542
;WIPE_END
G1 E-.04 F2100
G1 Z.6 F720
G1 X101.346 Y85.358 F10800
G1 Z.2 F720
G1 E.8 F2100
M204 S800
;TYPE:External perimeter
M73 Q1 S66
G1 F1200
G1 X101.131 Y85.536 E.00874
G1 X100.887 Y85.666 E.00868
M73 P1 R66
G1 X100.663 Y85.732 E.00732
G1 X100.372 Y85.764 E.0092
G1 X100.107 Y85.734 E.00835
G1 X99.863 Y85.644 E.00817
G1 X99.626 Y85.498 E.00869
G1 X99.441 Y85.285 E.00886
G1 X99.317 Y85.05 E.00832
G1 X99.252 Y84.814 E.00769
G1 X99.197 Y84.399 E.01312
G1 X99.248 Y84.002 E.01254
G1 X99.309 Y83.771 E.0075
G1 X99.427 Y83.535 E.00827
G1 X99.606 Y83.321 E.00877
G1 X99.808 Y83.185 E.00762
G1 X100.087 Y83.069 E.00949
G1 X100.32 Y83.037 E.00737
G1 X100.614 Y83.053 E.00922
G1 X100.865 Y83.122 E.00816
G1 X101.108 Y83.246 E.00856
G1 X101.326 Y83.42 E.00873
G1 X101.504 Y83.634 E.00874
G1 X101.634 Y83.878 E.00866
G1 X101.701 Y84.1 E.00728
G1 X101.737 Y84.39 E.00916
G1 X101.713 Y84.65 E.00819
G1 X101.643 Y84.897 E.00806
G1 X101.519 Y85.14 E.00854
G1 X101.383 Y85.311 E.00684
M204 S1000
G1 X101.421 Y85.626 F10800
;WIPE_START
G1 F8640
G1 X101.131 Y85.536 E-.078
G1 X100.887 Y85.666 E-.0639
G1 X100.663 Y85.732 E-.0539
G1 X100.372 Y85.764 E-.06777
G1 X100.107 Y85.734 E-.06152
G1 X99.863 Y85.644 E-.06015
G1 X99.626 Y85.498 E-.06402
G1 X99.441 Y85.285 E-.06523
G1 X99.317 Y85.05 E-.06126
G1 X99.252 Y84.814 E-.05666
G1 X99.197 Y84.399 E-.09664
G1 X99.214 Y84.266 E-.03094
;WIPE_END
G1 E-.04 F2100
G1 Z.6 F720
G1 X144.819 Y128.932 F10800
G1 Z.2 F720
G1 E.8 F2100
M204 S800
G1 F1200
G1 X144.823 Y130.933 E.06275
G1 X144.787 Y131.07 E.00443
G1 X144.669 Y131.164 E.00473
G1 X144.583 Y131.178 E.00275
G1 X105.833 Y131.183 E1.21496
G1 X105.424 Y131.178 E.01282
G1 X105.329 Y131.16 E.00305
G1 X105.209 Y131.061 E.00489
G1 X105.177 Y130.931 E.00418
G1 X105.171 Y130.317 E.01927
G1 X105.184 Y98.9 E.98506
G1 X105.223 Y98.327 E.01799
G1 X105.219 Y97.109 E.03819
G1 X105.238 Y96.999 E.00351
G1 X104.636 Y96.863 E.01935
G1 X104.36 Y96.746 E.00938
G1 X104.163 Y96.621 E.00731
G1 X103.996 Y96.477 E.00693
G1 X103.829 Y96.284 E.008
G1 X103.701 Y96.08 E.00755
G1 X99.151 Y87.489 E.30481
G1 X99.058 Y87.115 E.01207
G1 X99.03 Y86.005 E.03482
G1 X98.984 Y85.541 E.01463
G1 X98.845 Y84.65 E.02828
G1 X98.845 Y84.225 E.0133
G1 X98.887 Y83.805 E.01326
G1 X98.958 Y83.529 E.00893
G1 X99.07 Y83.258 E.00919
G1 X99.214 Y83.008 E.00906
G1 X99.382 Y82.778 E.00893
G1 X99.582 Y82.574 E.00895
G1 X99.8 Y82.413 E.0085
G1 X100.034 Y82.293 E.00824
G1 X100.285 Y82.213 E.00824
G1 X105.182 Y81.068 E.15771
G1 X105.177 Y79.066 E.06278
G1 X105.209 Y78.936 E.00417
G1 X105.316 Y78.844 E.00442
G1 X105.425 Y78.822 E.00348
G1 X144.167 Y78.817 E1.21474
G1 X144.669 Y78.836 E.01576
M73 P1 R65
G1 X144.787 Y78.93 E.00473
G1 X144.823 Y79.069 E.00448
G1 X144.828 Y79.675 E.01902
G1 X144.817 Y112.72 E1.03608
G1 X144.94 Y113.037 E.01069
G1 X145.436 Y113.163 E.01605
G1 X145.638 Y113.253 E.00692
G1 X145.837 Y113.379 E.00737
G1 X146.016 Y113.534 E.00743
G1 X146.171 Y113.715 E.00748
G1 X146.299 Y113.92 E.00758
G1 X150.765 Y122.327 E.2985
G1 X150.849 Y122.511 E.00632
G1 X150.942 Y122.888 E.01218
G1 X150.97 Y123.995 E.03471
G1 X151.016 Y124.459 E.01463
G1 X151.155 Y125.35 E.02828
G1 X151.155 Y125.775 E.0133
G1 X151.113 Y126.195 E.01326
G1 X151.042 Y126.471 E.00893
G1 X150.93 Y126.742 E.00919
G1 X150.786 Y126.992 E.00906
G1 X150.618 Y127.222 E.00892
G1 X150.418 Y127.426 E.00895
G1 X150.2 Y127.587 E.0085
G1 X149.966 Y127.707 E.00824
G1 X149.715 Y127.787 E.00825
G1 X144.877 Y128.918 E.1558
M204 S1000
G1 X144.42 Y128.963 F10800
;WIPE_START
G1 F8640
G1 X144.823 Y130.933 E-.46543
G1 X144.787 Y131.07 E-.0326
G1 X144.669 Y131.164 E-.03482
G1 X144.583 Y131.178 E-.02029
G1 X143.687 Y131.178 E-.20686
;WIPE_END
G1 E-.04 F2100
G1 Z.6 F720
G1 X150.092 Y127.263 F10800
G1 Z.2 F720
G1 E.8 F2100
M204 S800
;TYPE:Gap fill
;WIDTH:0.271887
G1 F1200
G1 X150.344 Y127.074 E.00599
M204 S1000
M204 S800
;WIDTH:0.265035
G1 X150.393 Y127.032 E.0012
M204 S1000
M204 S800
;WIDTH:0.251678
G1 X150.475 Y126.953 E.00197
M204 S1000
M204 S800
;WIDTH:0.212268
G1 X150.557 Y126.875 E.0016
M204 S1000
M204 S800
;WIDTH:0.17286
G1 X150.57 Y126.861 E.0002
M204 S1000
M204 S800
;WIDTH:0.169092
G1 X150.575 Y126.855 E.00009
M204 S1000
M204 S800
;WIDTH:0.168544
G1 X150.724 Y126.641 E.00273
M204 S1000
M204 S800
;WIDTH:0.123478
G1 X150.756 Y126.589 E.00041
M204 S1000
M204 S800
;WIDTH:0.105123
G1 X150.759 Y126.582 E.00004
M204 S1000
M204 S800
;WIDTH:0.103774
G1 X150.831 Y126.425 E.00088
M204 S1000
;WIPE_START
G1 F8640
G1 X150.759 Y126.582 E-.04004
;WIPE_END
G1 E-.75996 F2100
G1 Z.6 F720
G1 X150.864 Y124.843 F10800
G1 Z.2 F720
G1 E.8 F2100
M204 S800
;WIDTH:0.130511
G1 F1200
G1 X150.824 Y124.725 E.00091
M204 S1000
M204 S800
;WIDTH:0.167701
G1 X150.785 Y124.606 E.0013
M204 S1000
M204 S800
;WIDTH:0.1677
G1 X150.763 Y124.583 E.00033
M204 S1000
M204 S800
;WIDTH:0.150886
G1 X150.754 Y124.574 E.00011
M204 S1000
M204 S800
;WIDTH:0.145789
G1 X150.679 Y124.51 E.00084
M204 S1000
M204 S800
;WIDTH:0.119555
G1 X150.604 Y124.447 E.00063
M204 S1000
;WIPE_START
G1 F8640
G1 X150.679 Y124.51 E-.02275
;WIPE_END
G1 E-.77725 F2100
G1 Z.6 F720
G1 X143.961 Y80.447 F10800
G1 Z.2 F720
G1 E.8 F2100
M204 S800
;TYPE:Solid infill
;WIDTH:0.420451
G1 F1200
G1 X143.367 Y79.854 E.02633
G1 X142.834 Y79.854 E.01676
G1 X143.791 Y80.811 E.0425
G1 X143.791 Y81.345 E.01675
G1 X142.3 Y79.854 E.06619
G1 X141.766 Y79.854 E.01676
G1 X143.79 Y81.879 E.08988
G1 X143.79 Y82.412 E.01675
G1 X141.232 Y79.854 E.11357
G1 X140.698 Y79.854 E.01676
G1 X143.79 Y82.946 E.13726
G1 X143.79 Y83.48 E.01675
G1 X140.164 Y79.854 E.16095
G1 X139.63 Y79.854 E.01676
G1 X143.79 Y84.013 E.18465
G1 X143.79 Y84.547 E.01675
G1 X139.097 Y79.854 E.20834
G1 X138.563 Y79.854 E.01676
G1 X143.789 Y85.081 E.23203
G1 X143.789 Y85.615 E.01675
G1 X138.029 Y79.854 E.25572
G1 X137.495 Y79.854 E.01676
G1 X143.789 Y86.148 E.27941
G1 X143.789 Y86.682 E.01675
G1 X136.961 Y79.855 E.3031
G1 X136.427 Y79.855 E.01676
G1 X143.789 Y87.216 E.3268
G1 X143.788 Y87.749 E.01675
G1 X135.894 Y79.855 E.35049
G1 X135.36 Y79.855 E.01676
G1 X143.788 Y88.283 E.37418
G1 X143.788 Y88.817 E.01675
G1 X134.826 Y79.855 E.39787
G1 X134.292 Y79.855 E.01676
G1 X143.788 Y89.351 E.42156
G1 X143.788 Y89.884 E.01675
G1 X133.758 Y79.855 E.44526
G1 X133.224 Y79.855 E.01676
G1 X143.787 Y90.418 E.46895
G1 X143.787 Y90.952 E.01675
G1 X132.69 Y79.855 E.49264
G1 X132.157 Y79.855 E.01676
G1 X143.787 Y91.486 E.51633
G1 X143.787 Y92.019 E.01675
G1 X131.623 Y79.855 E.54002
G1 X131.089 Y79.855 E.01676
G1 X143.787 Y92.553 E.56371
G1 X143.787 Y93.087 E.01675
G1 X130.555 Y79.855 E.58741
G1 X130.021 Y79.855 E.01676
G1 X143.786 Y93.62 E.6111
G1 X143.786 Y94.154 E.01675
G1 X129.487 Y79.855 E.63479
G1 X128.954 Y79.855 E.01676
G1 X143.786 Y94.688 E.65848
G1 X143.786 Y95.222 E.01675
G1 X128.42 Y79.856 E.68217
G1 X127.886 Y79.856 E.01676
G1 X143.786 Y95.755 E.70586
G1 X143.785 Y96.289 E.01675
G1 X127.352 Y79.856 E.72956
G1 X126.818 Y79.856 E.01676
G1 X143.785 Y96.823 E.75325
G1 X143.785 Y97.356 E.01675
G1 X126.284 Y79.856 E.77694
G1 X125.75 Y79.856 E.01676
G1 X143.785 Y97.89 E.80063
G1 X143.785 Y98.424 E.01675
G1 X125.217 Y79.856 E.82432
G1 X124.683 Y79.856 E.01676
G1 X143.784 Y98.958 E.84801
G1 X143.784 Y99.491 E.01675
G1 X124.149 Y79.856 E.87171
G1 X123.615 Y79.856 E.01676
M73 P2 R65
M73 Q2 S66
G1 X143.784 Y100.025 E.8954
G1 X143.784 Y100.559 E.01675
G1 X123.081 Y79.856 E.91909
G1 X122.547 Y79.856 E.01676
G1 X143.784 Y101.093 E.94278
G1 X143.784 Y101.626 E.01675
M73 Q2 S65
G1 X122.014 Y79.856 E.96647
G1 X121.48 Y79.856 E.01676
G1 X143.783 Y102.16 E.99016
G1 X143.783 Y102.694 E.01675
G1 X120.946 Y79.856 E1.01386
G1 X120.412 Y79.856 E.01676
G1 X143.783 Y103.227 E1.03755
G1 X143.783 Y103.761 E.01675
G1 X119.878 Y79.857 E1.06124
G1 X119.344 Y79.857 E.01676
G1 X143.783 Y104.295 E1.08493
